src/dark/hiso font dark_a.svg

<svg xmlns="http://www.w3.org/2000/svg" width="90" height="126" viewBox="0 0 90 126"><path fill="#000101" d="M36 81l36-18v36l-36-18zm36-54v36l-36-18v72l-36-18v-72l36-18 36 18zm-6.71 0l-29.29-14.65-33 16.5v68.3l30 15v-69l32.29-16.15z"/><text transform="translate(0 -18)" fill="#F80071" font-family="'MyriadPro-Regular'" font-size="72">Letters 1-16</text></svg>

<svg xmlns="http://www.w3.org/2000/svg" width="90" height="126"><path fill="#000101" d="M36 81l36-18v36L36 81zm36-54v36L36 45v72L0 99V27L36 9l36 18zm-6.71 0L36 12.35 3 28.85v68.3l30 15v-69L65.29 27z"/><text transform="translate(0 -18)" fill="#F80071" font-family="'MyriadPro-Regular'" font-size="72">Letters 1-16</text></svg>
